rospo-newyear-dark/symbolic/categories/applications-multimedia-symbolic.svg

<svg height="16" width="16" xmlns="http://www.w3.org/2000/svg"><path d="m9 8v4.28c-.3-.17-.64-.28-1-.28-1.11 0-2 .9-2 2s .89 2 2 2c1.1 0 2-.9 2-2v-4h4v2.28c-.3-.17-.64-.28-1-.28-1.11 0-2 .9-2 2s .89 2 2 2c1.1 0 2-.9 2-2v-6z" fill="#d3dae3"/><path d="m1 1v15h1v-1h1v1h1v-3h1v-2h-1v-5h8v1h3v-6h-1v1h-1v-1h-1v3h-8v-3h-1v1h-1v-1zm1 2h1v1h-1zm11 0h1v1h-1zm-11 2h1v1h-1zm11 0h1v1h-1zm-11 2h1v1h-1zm0 2h1v1h-1zm0 2h1v1h-1zm0 2h1v1h-1z" fill="#d3dae3"/></svg>

<svg xmlns="http://www.w3.org/2000/svg" width="16" height="16" version="1.1">
 <path style="fill:#d3dae3" d="M 9,8 V 12.28 C 8.7,12.11 8.36,12 8,12 6.89,12 6,12.9 6,14 6,15.1 6.89,16 8,16 9.1,16 10,15.1 10,14 V 10 H 14 V 12.28 C 13.7,12.11 13.36,12 13,12 11.89,12 11,12.9 11,14 11,15.1 11.89,16 13,16 14.1,16 15,15.1 15,14 V 8 Z"/>
 <path style="fill:#d3dae3" d="M 1,1 V 16 H 2 V 15 H 3 V 16 H 4 V 13 H 5 V 11 H 4 V 6 H 12 V 7 H 15 V 1 H 14 V 2 2 H 13 V 1 H 12 V 4 H 4 V 1 H 3 V 2 2 H 2 V 1 Z M 2,3 H 3 V 4 H 2 Z M 13,3 H 14 V 4 H 13 Z M 2,5 H 3 V 6 H 2 Z M 13,5 H 14 V 6 H 13 Z M 2,7 H 3 V 8 H 2 Z M 2,9 H 3 V 10 H 2 Z M 2,11 H 3 V 12 H 2 Z M 2,13 H 3 V 14 H 2 Z"/>
</svg>
